src/actions/22/system-suspend.svg

<svg xmlns="http://www.w3.org/2000/svg" viewBox="0 0 22 22">
  <defs id="defs3051">
    <style type="text/css" id="current-color-scheme">
      .ColorScheme-Text {
        color:#363636;
      }
      </style>
  </defs>
    <path 
     style="fill:currentColor;fill-opacity:1;stroke:none" 
     id="path893-3"
     d="M 7.0462869,4.048828 A 7.9949791,8 0 0 0 3,11 a 7.9949791,8 0 0 0 7.994979,8 7.9949791,8 0 0 0 6.93705,-4.042969 7.9949791,8 0 0 0 0.0098,-0.0059 L 17.204005,14.21285 a 6.9956067,7 0 0 1 -0.0039,0.0059 A 6.9956067,7 0 0 1 13.993096,15 6.9956067,7 0 0 1 6.9974895,8 6.9956067,7 0 0 1 7.7841046,4.787109 Z M 6.3026129,5.820313 A 7.9949791,8 0 0 0 5.9981172,8 7.9949791,8 0 0 0 13.993096,16 7.9949791,8 0 0 0 16.179223,15.6875 6.9956067,7 0 0 1 10.994979,18 6.9956067,7 0 0 1 3.9993724,11 6.9956067,7 0 0 1 6.3026129,5.820313 Z M 11.71032,9.099999 h 1.714714 l -0.03217,0.9 H 9.9956067 L 11.710327,7.3 H 9.9956007 V 6.4 H 13.425032 Z M 16.283493,6.7 H 18 l -0.03222,0.9 h -3.400797 l 1.716511,-2.7 h -1.71651 V 3.999999 h 3.433014 z"
     class="ColorScheme-Text"
     />
</svg>

<svg xmlns="http://www.w3.org/2000/svg" viewBox="0 0 22 22">
    <path d="M7.046 4.049A7.995 8 0 0 0 3 11a7.995 8 0 0 0 7.995 8 7.995 8 0 0 0 6.937-4.043 7.995 8 0 0 0 .01-.006l-.738-.738a6.996 7 0 0 1-.004.006 6.996 7 0 0 1-3.207.781 6.996 7 0 0 1-6.996-7 6.996 7 0 0 1 .787-3.213ZM6.303 5.82A7.995 8 0 0 0 5.998 8a7.995 8 0 0 0 7.995 8 7.995 8 0 0 0 2.186-.312A6.996 7 0 0 1 10.995 18a6.996 7 0 0 1-6.996-7 6.996 7 0 0 1 2.304-5.18ZM11.71 9.1h1.715l-.032.9H9.996l1.714-2.7H9.996v-.9h3.429Zm4.573-2.4H18l-.032.9h-3.401l1.716-2.7h-1.716V4H18z" style="fill:currentColor;fill-opacity:1;stroke:none;color:#050505;opacity:.7"/>
</svg>
